tools/download-figma-icons/icons/solid/speechbubble.svg

<svg width="24" height="24" viewBox="0 0 24 24" fill="none" xmlns="http://www.w3.org/2000/svg">
<path fill-rule="evenodd" clip-rule="evenodd" d="M20.0325 10.9125H8.31747C7.90497 10.9125 7.56747 10.575 7.56747 10.1625C7.56747 9.75 7.90497 9.4125 8.31747 9.4125H20.0325C20.445 9.4125 20.7825 9.75 20.7825 10.1625C20.7825 10.575 20.445 10.9125 20.0325 10.9125ZM11.1675 18.3675C11.1675 18.465 11.0925 18.54 10.995 18.54H6.945C6.735 18.54 6.5325 18.63 6.39075 18.7875L4.77 20.58L4.455 19.1325C4.3725 18.7875 4.0725 18.54 3.72 18.54H1.68C1.59 18.54 1.5075 18.465 1.5075 18.3675L1.5 12.48C1.5 12.42 1.53 12.3825 1.55175 12.36C1.57575 12.3375 1.62 12.3075 1.6725 12.3075H4.35V13.3125C4.35 14.5425 5.3475 15.54 6.57 15.54H11.1675V18.3675ZM8.31747 5.91001H15.2175C15.6382 5.91001 15.9675 6.24751 15.9675 6.66001C15.9675 7.07251 15.6382 7.41001 15.2175 7.41001H8.31747C7.90497 7.41001 7.56747 7.07251 7.56747 6.66001C7.56747 6.24751 7.90497 5.91001 8.31747 5.91001ZM21.78 1.5H6.57C5.3475 1.5 4.35 2.4975 4.35 3.7275V10.8075H1.6725C1.23 10.8075 0.81 10.9875 0.495 11.3025C0.18 11.6175 0 12.0375 0 12.48L0.0075 18.375C0.01575 19.29 0.76575 20.04 1.68 20.04H3.12L3.6225 22.3275C3.6825 22.5975 3.8925 22.815 4.1625 22.89C4.2225 22.905 4.29 22.9125 4.35 22.9125C4.56 22.9125 4.76325 22.8225 4.9125 22.665L7.275 20.04H10.995C11.9175 20.04 12.6675 19.29 12.6675 18.3675V15.54H13.0492L16.9508 19.8675C17.0925 20.025 17.295 20.115 17.505 20.115C17.565 20.115 17.6325 20.1075 17.6925 20.0925C17.9625 20.025 18.1725 19.8075 18.2393 19.5375L19.1768 15.54H21.78C23.0025 15.54 24 14.5425 24 13.3125V3.7275C24 2.4975 23.0025 1.5 21.78 1.5Z" fill="black"/>
</svg>

<svg width="24" height="24" viewBox="0 0 24 24" fill="none" xmlns="http://www.w3.org/2000/svg"><path fill-rule="evenodd" clip-rule="evenodd" d="M20.032 10.912H8.317a.752.752 0 0 1-.75-.75c0-.412.338-.75.75-.75h11.715c.413 0 .75.338.75.75 0 .413-.337.75-.75.75Zm-8.864 7.455a.17.17 0 0 1-.173.173h-4.05c-.21 0-.413.09-.554.248L4.77 20.58l-.315-1.447a.76.76 0 0 0-.735-.593H1.68a.174.174 0 0 1-.172-.172L1.5 12.48c0-.06.03-.098.052-.12a.185.185 0 0 1 .12-.053H4.35v1.005c0 1.23.998 2.228 2.22 2.228h4.598v2.828ZM8.318 5.91h6.9c.42 0 .75.338.75.75 0 .413-.33.75-.75.75h-6.9a.752.752 0 0 1-.75-.75c0-.412.337-.75.75-.75ZM21.78 1.5H6.57c-1.223 0-2.22.998-2.22 2.228v7.08H1.673c-.443 0-.863.18-1.178.495A1.664 1.664 0 0 0 0 12.48l.007 5.895A1.683 1.683 0 0 0 1.68 20.04h1.44l.502 2.288c.06.27.27.487.54.562a.778.778 0 0 0 .75-.225l2.363-2.625h3.72c.923 0 1.673-.75 1.673-1.672V15.54h.381l3.902 4.328a.748.748 0 0 0 .741.225.76.76 0 0 0 .547-.555l.938-3.998h2.603c1.223 0 2.22-.997 2.22-2.227V3.726c0-1.23-.997-2.227-2.22-2.227Z" fill="currentColor"/></svg>
